X: 1
T: The Milky Way
R: reel
M: 4/4
L: 1/8
K: Dmaj
|:D2 (3FED ADFA|d2 fd ef d2|D2 (3FED ADFA|BE E2 BE E2|
D2 (3FED ADFA|d2 fd ef d2|dffd efdB|AFEF d4:|
|:efdB AFEF|d2 fd ef d2|efdB AFEF|A2 FE AFAE|
efdB AFEF|defd ef d2|dffd efdB|AFEF d4:|


Tune 2241	Setting 15610

